resources/icons/20px/layout-bottom-row-three-tiles.svg

<svg width="20" height="20" viewBox="0 0 20 20" fill="none" xmlns="http://www.w3.org/2000/svg">
<path d="M0 1C0 0.447715 0.447715 0 1 0H19C19.5523 0 20 0.447715 20 1V8C20 8.55228 19.5523 9 19 9H1C0.447716 9 0 8.55228 0 8V1Z" fill="black"/>
<path d="M0 12C0 11.4477 0.447715 11 1 11H4C4.55228 11 5 11.4477 5 12V19C5 19.5523 4.55228 20 4 20H1C0.447715 20 0 19.5523 0 19V12Z" fill="black"/>
<path d="M7 12C7 11.4477 7.44772 11 8 11H12C12.5523 11 13 11.4477 13 12V19C13 19.5523 12.5523 20 12 20H8C7.44772 20 7 19.5523 7 19V12Z" fill="black"/>
<path d="M15 12C15 11.4477 15.4477 11 16 11H19C19.5523 11 20 11.4477 20 12V19C20 19.5523 19.5523 20 19 20H16C15.4477 20 15 19.5523 15 19V12Z" fill="black"/>
</svg>

<svg xmlns="http://www.w3.org/2000/svg" viewBox="0 0 20 20">
  <path d="M0 1a1 1 0 0 1 1-1h18a1 1 0 0 1 1 1v7a1 1 0 0 1-1 1H1a1 1 0 0 1-1-1zM0 12a1 1 0 0 1 1-1h3a1 1 0 0 1 1 1v7a1 1 0 0 1-1 1H1a1 1 0 0 1-1-1zM7 12a1 1 0 0 1 1-1h4a1 1 0 0 1 1 1v7a1 1 0 0 1-1 1H8a1 1 0 0 1-1-1zM15 12a1 1 0 0 1 1-1h3a1 1 0 0 1 1 1v7a1 1 0 0 1-1 1h-3a1 1 0 0 1-1-1z"/>
</svg>
